icon/ir/server-connection.svg

<svg width="24" height="24" stroke-width="1.5" fill="none" xmlns="http://www.w3.org/2000/svg"><path d="M3 19h9m9 0h-9m0 0v-6m0 0h6V5H6v8h6ZM9 9.01l.01-.011M12 9.01l.01-.011" stroke="currentColor" stroke-linecap="round" stroke-linejoin="round"/></svg>

<svg stroke-width="1.5" viewBox="0 0 24 24" fill="none" xmlns="http://www.w3.org/2000/svg" height="1em" width="1em">
  <path d="M3 19H12M21 19H12M12 19V13M12 13H18V5H6V13H12Z" stroke="currentColor" stroke-linecap="round" stroke-linejoin="round"/>
  <path d="M9 9.01L9.01 8.99889" stroke="currentColor" stroke-linecap="round" stroke-linejoin="round"/>
  <path d="M12 9.01L12.01 8.99889" stroke="currentColor" stroke-linecap="round" stroke-linejoin="round"/>
</svg>
